X:3773
T:Longford Tinker, The
T:Jenny Dang the Weaver
O:england
R:reel
D:Paul McGrattan: The Frost Is All Over
D:Bothy Band: 1975
M:C|
K:D
dBBA ~B3c|dB~B2 effe|dBBA B2dB|ABde ~f3e|
dB~B2 fB~B2|dB~B2 f2fg|aAAF ABAF|ABde effe||
d2fd efge|defa gefe|d2fd efge|faaf gfef|
d2fd efge|defa ~g3a|bgaf gfed|faaf gfed||
fa~a2 fa~a2|faaf gfed|gb~b2 gb~b2|gbbf gfed|
fa~a2 fa~a2|faaf g2ga|bgaf gfed|faaf gfef||
